Sources/FrostedUI/Resources/Icons.xcassets/merch12.imageset/merch-12.svg

<svg width="12" height="12" viewBox="0 0 12 12" fill="none" xmlns="http://www.w3.org/2000/svg" data-fui-icon="true">
  <path
    d="M1.57407 5.13597L0.786326 3.55719C0.698072 3.38032 0.773702 3.1655 0.953299 3.08293L4.39617 1.5C4.39617 1.5 4.56956 2.8871 6 2.8871C7.43045 2.8871 7.60383 1.5 7.60383 1.5L11.0467 3.08293C11.2263 3.1655 11.3019 3.38032 11.2137 3.55719L10.4259 5.13597C10.3496 5.28903 10.1737 5.36447 10.0102 5.31433L9.20766 5.06833L9.20766 9.875C9.20766 10.0821 9.03976 10.25 8.83266 10.25H3.16734C2.96023 10.25 2.79234 10.0821 2.79234 9.875L2.79234 5.06833L1.98983 5.31433C1.82628 5.36447 1.65045 5.28903 1.57407 5.13597Z"
    stroke="currentColor"
    stroke-width="1.5"
    stroke-linecap="round"
    stroke-linejoin="round"
  />
</svg>

<svg xmlns="http://www.w3.org/2000/svg" width="12" height="12" fill="none" data-fui-icon="true" viewBox="0 0 12 12"><path stroke="currentColor" stroke-linecap="round" stroke-linejoin="round" stroke-width="1.5" d="M1.574 5.136.786 3.557a.35.35 0 0 1 .167-.474L4.396 1.5S4.57 2.887 6 2.887 7.604 1.5 7.604 1.5l3.443 1.583a.35.35 0 0 1 .167.474l-.788 1.579a.35.35 0 0 1-.416.178l-.802-.246v4.807a.375.375 0 0 1-.375.375H3.167a.375.375 0 0 1-.375-.375V5.068l-.802.246a.35.35 0 0 1-.416-.178"/></svg>
